!!!OTL: Verschlafener Jaeger
!!!OTL-incipit:Es ging ein Jaeger jagen
!!!ARE: Europa, Mitteleuropa, Deutschland (BRD), Bayern, Niederbayern
!!!YOR: 7, S. 218
!!    ????
!!!SCT: Q0152P
!!!TXL: @@DE
!!!YEM: Copyright 1995, estate of Helmut Schaffrath.
**kern	**text
*ICvox	*
*M6/8	*
*k[]	*
*C:	*
!LO:TX:a:t=344 Niederbayern	!
{8g	Es
=1	=1
4cc	ging
8cc	ein
(8cc/L	Jä-
8b)	.
8aJ	-ger
=2	=2
(4g	ja-
8e)	.
4e}	-gen
{8g	drei
=3	=3
8.ccL	Stün-
16cc	-de-
8ccJ	-lein
(8ccL	vor
8b)	.
8aJ	den
=4	=4
(4g	Ta-
8e)	.
4e}	-gen
{16eL	wohl
16gJ	.
=5	=5
4g	in
8f	den
(8dL	grea-
8g)	.
8bJ	-nen
=6	=6
(8ccL	Wald,
8ee)	.
8eeJ	ja,
(8eeL	ja,
8aa)}	.
{8ggJ	wohl
=7	=7
4ff	in
8b	den
(8bL	grea-
8a)	.
8bJ	-nen
=8	=8
[4.cc	Wald.
4cc]}	.
==	==
!!!AGN: Ballade, Verfuehrung, Versagen, Spott
!! Anhaengsel an der dritten Zeile.
!!!ONB: ESAC (Essen Associative Code) Database: BALLADE
!!!AMT: compound duple
!!!AIN: vox
!!!EED: Helmut Schaffrath
!!!EEV: 1.0
!!!source: Deutsche Volkslieder mit ihren Melodien Balladen. Herausgegeben vom Deutschen Volksliedarchiv. Siebenterer Band. Freiburg/Breisgau 1982.
!!!page: 218
!!!ENC: Anna Maria Matuszewska
!!!EEV: 2025/03/07
*-	*-
